X: 4049
T: Blaxton Rambles
R: jig
M: 6/8
K: Eminor
|:AB2 bfa|fed 2BA|FDE F/E/ DB,|EED EFA|1 B2e dBA2z:|2 B2A FDE2z||
|:ABB dBe|def 2af|edB AFB,|EED EFA|1 B2e dBA2z:|2 B2A FDE2z||

